X: 151
T: No_233_Song_Concerning_the_Removal_of_the_Seminole_to_Oklahoma_(b).krn
N: Derived from No_233_Song_Concerning_the_Removal_of_the_Seminole_to_Oklahoma_(b).krn
%%abc-version 2.0
%%abcx-abcm2ps-target-version 5.9.1 (29 Sep 2008)
%%abc-creator hum2abc beta
%%abcx-conversion-date 2019/03/15 08:38:45
%%humdrum-veritas 2614510062
%%humdrum-veritas-data 519380720
%%linebreak <none>
%%barnumbers 0
L: 1/8
M: 2/4
K: G clef=bass
[K:clef=bass][M:2/4]z3B, | 
G,2B,2 ||  
[M:3/4]C2B,2z2 ||  
[M:2/4]B,3/G,/ G,G, | 
G,3B, | 
G,2B,2 | 
C2B,2 | 
z4 | 
B,3/G,/ G,G, | 
G,3D ||  
[M:3/4]D2D2C2 ||  
[M:2/4]B,3z | 
B,3/G,/ G,G, | 
G,3D ||  
[M:3/4]B,2B,2G,2 ||  
[M:2/4]B,2z2 | 
z2G,G, | 
G,4 | 
D2D2 | 
B,2B,2 | 
CB, B,G, | 
C2z2 | 
B,3/G,/ G,G, | 
G,4 ||  
[M:3/4]G,2G,G, (3G,G,G, | 
B,2B,B,G,2 ||  
[M:2/4]C2z2 | 
B,3/G,/ G,G, | 
G,3B, | 
G,2B,2 ||  
[M:3/4]C2B,2z2 ||  
[M:2/4]z2G,G, | 
G,3D | 
D/B,3/-B,2 | 
B,2G,2 | 
B,2z2 | 
B,3/G,/ G,G, | 
G,3B, | 
G,2B,2 ||  
[M:3/4]C2B,2z2 ||  
[M:2/4]z2G,G, | 
G,3D | 
D3/B,/B,2 ||  
[M:3/4]B,2B,2G,2 ||  
[M:2/4]B,2z2 | 
B,3/G,/ G,G, | 
G,3B, | 
G,2B,2 | 
C2B,2 | 
z2G,G, | 
G,4 | 
D2C2 | 
B,2B,2 | 
CC B,G, | 
C2z2 | 
B,3/G,/ G,G, | 
G,2G,2 | 
G,G, G,G, | 
G,2G,2 ||  
[M:3/4]B,2CC B,G, ||  
[M:2/4]B,4 | 
B,3/G,/ G,G, | 
G,3B, | 
G,2B,2 ||  
[M:3/4]C2B,4 ||  
[M:2/4]z2G,G, | 
G,4 |]  



